images/icons/colored-logo-2.svg

<svg width="105" height="40" viewBox="0 0 105 40" fill="none" xmlns="http://www.w3.org/2000/svg">
<g clip-path="url(#clip0_550_1301)">
<path d="M48.136 35.238H50.8704V24.9237H48.136V35.238ZM48.136 23.3152H50.8704V20.8623H48.136V23.3152Z" fill="black"/>
<path d="M52.6323 38.6159H55.3667V34.072H55.407C55.99 34.9566 56.935 35.5397 58.3826 35.5397C61.0366 35.5397 62.8461 33.4286 62.8461 30.091C62.8461 26.874 61.0969 24.6423 58.3625 24.6423C56.9551 24.6423 55.99 25.3058 55.3265 26.2105H55.2662V24.9238H52.6323V38.6159ZM57.7996 33.2677C56.171 33.2677 55.3064 32.0413 55.3064 30.1714C55.3064 28.3217 55.99 26.8539 57.699 26.8539C59.3879 26.8539 60.0715 28.2211 60.0715 30.1714C60.0715 32.1217 59.1869 33.2677 57.7996 33.2677Z" fill="black"/>
<path d="M68.3006 35.5397C70.8741 35.5397 72.6434 34.2931 72.6434 32.2222C72.6434 29.8095 70.7334 29.327 69.0043 28.9651C67.5365 28.6635 66.1693 28.583 66.1693 27.6984C66.1693 26.9545 66.873 26.5523 67.9387 26.5523C69.1048 26.5523 69.8085 26.9545 69.9291 28.0603H72.4022C72.2011 25.9894 70.6932 24.6423 67.9789 24.6423C65.6265 24.6423 63.7767 25.7079 63.7767 27.9396C63.7767 30.1915 65.5863 30.6942 67.436 31.0561C68.8434 31.3375 70.1503 31.4381 70.1503 32.4233C70.1503 33.1471 69.4667 33.6095 68.2603 33.6095C67.0339 33.6095 66.1894 33.0868 66.0085 31.9005H63.4751C63.636 34.0921 65.3048 35.5397 68.3006 35.5397Z" fill="black"/>
<path d="M83.0252 35.2381V24.9238H80.2908V30.8751C80.2908 32.2423 79.5067 33.2074 78.2199 33.2074C77.0538 33.2074 76.5109 32.5439 76.5109 31.3375V24.9238H73.7966V31.8C73.7966 34.0518 75.0834 35.5196 77.3755 35.5196C78.8231 35.5196 79.6273 34.9767 80.3311 34.0317H80.3914V35.2381H83.0252Z" fill="black"/>
<path d="M84.7939 35.2381H87.5284V29.2465C87.5284 27.8793 88.2723 26.9947 89.3781 26.9947C90.3834 26.9947 90.9665 27.5978 90.9665 28.764V35.2381H93.7009V29.2465C93.7009 27.8793 94.4046 26.9947 95.5506 26.9947C96.5559 26.9947 97.139 27.5978 97.139 28.764V35.2381H99.8734V28.3016C99.8734 26.0497 98.6469 24.6423 96.4755 24.6423C95.1686 24.6423 94.0829 25.3259 93.3792 26.4518H93.339C92.8363 25.3661 91.7908 24.6423 90.4839 24.6423C89.0564 24.6423 88.0511 25.3661 87.4881 26.3111H87.4278V24.9238H84.7939V35.2381Z" fill="black"/>
<path d="M48.1763 17.572H50.9107V3.19629H48.1763V17.572Z" fill="black"/>
<path d="M57.5967 17.8737C60.7936 17.8737 62.9851 15.5012 62.9851 12.425C62.9851 9.34881 60.7936 6.97632 57.5967 6.97632C54.3999 6.97632 52.2083 9.34881 52.2083 12.425C52.2083 15.5012 54.3999 17.8737 57.5967 17.8737ZM57.5967 15.7827C55.9078 15.7827 54.983 14.4356 54.983 12.425C54.983 10.4144 55.9078 9.04723 57.5967 9.04723C59.2655 9.04723 60.2105 10.4144 60.2105 12.425C60.2105 14.4356 59.2655 15.7827 57.5967 15.7827Z" fill="black"/>
<path d="M68.8 21.0907C70.3281 21.0907 71.6551 20.7288 72.5196 19.9245C73.2836 19.2208 73.7461 18.2356 73.7461 16.788V7.2578H71.1122V8.34352H71.072C70.4487 7.47896 69.5037 6.97632 68.2169 6.97632C65.6032 6.97632 63.7534 8.9467 63.7534 12.0229C63.7534 15.1393 66.0053 16.9488 68.2974 16.9488C69.6043 16.9488 70.3884 16.4261 70.9916 15.7425H71.0519V16.8684C71.0519 18.2758 70.308 19.0197 68.7598 19.0197C67.4931 19.0197 66.9101 18.5171 66.6889 17.8737H63.9746C64.2561 19.8843 65.9852 21.0907 68.8 21.0907ZM68.7598 14.7573C67.3524 14.7573 66.4275 13.7319 66.4275 11.9827C66.4275 10.2536 67.3524 9.16786 68.7397 9.16786C70.3884 9.16786 71.1926 10.4546 71.1926 11.9626C71.1926 13.4906 70.4889 14.7573 68.7598 14.7573Z" fill="black"/>
<path d="M80.3926 17.8737C83.5894 17.8737 85.781 15.5012 85.781 12.425C85.781 9.34881 83.5894 6.97632 80.3926 6.97632C77.1958 6.97632 75.0042 9.34881 75.0042 12.425C75.0042 15.5012 77.1958 17.8737 80.3926 17.8737ZM80.3926 15.7827C78.7037 15.7827 77.7788 14.4356 77.7788 12.425C77.7788 10.4144 78.7037 9.04723 80.3926 9.04723C82.0614 9.04723 83.0064 10.4144 83.0064 12.425C83.0064 14.4356 82.0614 15.7827 80.3926 15.7827Z" fill="black"/>
<path d="M88.178 13.6312H100V11.2788H88.178V13.6312Z" fill="black"/>
<path d="M100.867 23.1718C100.867 22.7091 101.242 22.334 101.705 22.334H103.38C103.843 22.334 104.218 22.7091 104.218 23.1718C104.218 23.6344 103.843 24.0095 103.38 24.0095H101.705C101.242 24.0095 100.867 23.6344 100.867 23.1718Z" fill="black"/>
<path fill-rule="evenodd" clip-rule="evenodd" d="M20.5215 0C31.5672 0 40.5215 8.9543 40.5215 20C40.5215 31.0457 31.5672 40 20.5215 40C9.47579 40 0.521484 31.0457 0.521484 20C0.521484 8.9543 9.47579 0 20.5215 0ZM19.7986 1.49659C17.517 1.81769 15.3444 3.65108 13.6579 6.7174C13.1687 7.60683 12.7273 8.58946 12.3426 9.65044C14.6358 9.07417 17.1549 8.73442 19.7986 8.68187V1.49659ZM10.6523 10.1308C11.1306 8.62958 11.7158 7.2484 12.3911 6.02065C13.2271 4.50059 14.2193 3.18795 15.3372 2.17977C9.25828 3.94523 4.46671 8.73679 2.70126 14.8157C3.70943 13.6978 5.02208 12.7056 6.54214 11.8696C7.76989 11.1943 9.15106 10.6091 10.6523 10.1308ZM10.1719 11.8211C9.59565 14.1143 9.25591 16.6334 9.20336 19.2771H2.01807C2.33918 16.9954 4.17257 14.8228 7.23889 13.1364C8.12832 12.6472 9.11095 12.2058 10.1719 11.8211ZM10.6495 19.2771C10.7092 16.392 11.1245 13.6834 11.8117 11.2902C14.2049 10.603 16.9136 10.1876 19.7986 10.1279V13.2508C18.7223 16.0062 16.5271 18.2012 13.7716 19.2771H10.6495ZM9.20336 20.7229H2.01807C2.33918 23.0046 4.17257 25.1771 7.23889 26.8636C8.12832 27.3528 9.11095 27.7942 10.1719 28.1789C9.59565 25.8857 9.25591 23.3666 9.20336 20.7229ZM11.8117 28.7098C11.1245 26.3166 10.7092 23.608 10.6495 20.7229H13.7716C16.5271 21.7988 18.7224 23.9938 19.7986 26.7492V29.8721C16.9136 29.8124 14.2049 29.397 11.8117 28.7098ZM10.6523 29.8692C9.15106 29.3909 7.76989 28.8057 6.54214 28.1304C5.02208 27.2944 3.70943 26.3022 2.70126 25.1843C4.46671 31.2632 9.25828 36.0548 15.3372 37.8202C14.2193 36.812 13.2271 35.4994 12.3911 33.9793C11.7158 32.7516 11.1306 31.3704 10.6523 29.8692ZM19.7986 38.5034C17.517 38.1823 15.3444 36.3489 13.6579 33.2826C13.1687 32.3932 12.7273 31.4105 12.3426 30.3496C14.6358 30.9258 17.1549 31.2656 19.7986 31.3181V38.5034ZM25.7058 37.8202C26.8237 36.812 27.8159 35.4994 28.652 33.9793C29.3272 32.7516 29.9124 31.3704 30.3907 29.8692C31.8919 29.3909 33.2731 28.8057 34.5009 28.1304C36.0209 27.2944 37.3336 26.3022 38.3417 25.1843C36.5763 31.2632 31.7847 36.0548 25.7058 37.8202ZM28.7004 30.3496C28.3157 31.4105 27.8743 32.3932 27.3851 33.2826C25.6987 36.3489 23.5261 38.1823 21.2444 38.5034V31.3181C23.8881 31.2656 26.4072 30.9258 28.7004 30.3496ZM30.8711 28.1789C31.932 27.7942 32.9147 27.3528 33.8041 26.8636C36.8704 25.1771 38.7038 23.0046 39.0249 20.7229H31.8396C31.7871 23.3666 31.4473 25.8857 30.8711 28.1789ZM30.3936 20.7229C30.3339 23.608 29.9185 26.3166 29.2313 28.7098C26.8381 29.397 24.1295 29.8124 21.2444 29.8721V26.7515C22.3203 23.9951 24.516 21.7991 27.2723 20.7229H30.3936ZM31.8396 19.2771H39.0249C38.7038 16.9954 36.8704 14.8228 33.8041 13.1364C32.9147 12.6472 31.932 12.2058 30.8711 11.8211C31.4473 14.1143 31.7871 16.6334 31.8396 19.2771ZM29.2313 11.2902C29.9185 13.6834 30.3339 16.392 30.3936 19.2771H27.2723C24.516 18.2009 22.3203 16.0049 21.2444 13.2485V10.1279C24.1295 10.1876 26.8381 10.603 29.2313 11.2902ZM30.3907 10.1308C31.8919 10.6091 33.2731 11.1943 34.5009 11.8696C36.0209 12.7056 37.3336 13.6978 38.3417 14.8157C36.5763 8.73679 31.7847 3.94523 25.7058 2.17977C26.8237 3.18795 27.8159 4.50059 28.652 6.02065C29.3272 7.2484 29.9124 8.62958 30.3907 10.1308ZM21.2444 1.49659C23.5261 1.81769 25.6987 3.65108 27.3851 6.7174C27.8743 7.60684 28.3157 8.58946 28.7004 9.65044C26.4072 9.07417 23.8881 8.73442 21.2444 8.68187V1.49659Z" fill="black"/>
</g>
<defs>
<clipPath id="clip0_550_1301">
<rect width="105" height="40" fill="white"/>
</clipPath>
</defs>
</svg>

<svg width="105" height="40" fill="none" xmlns="http://www.w3.org/2000/svg"><g clip-path="url(#a)" fill="#000"><path d="M48.136 35.238h2.734V24.924h-2.734v10.314Zm0-11.923h2.734v-2.453h-2.734v2.453ZM52.632 38.616h2.735v-4.544h.04c.583.885 1.528 1.468 2.976 1.468 2.654 0 4.463-2.111 4.463-5.449 0-3.217-1.75-5.449-4.483-5.449-1.408 0-2.373.664-3.036 1.569h-.06v-1.287h-2.635v13.692Zm5.168-5.348c-1.629 0-2.494-1.227-2.494-3.097 0-1.85.684-3.317 2.393-3.317 1.689 0 2.373 1.367 2.373 3.317 0 1.95-.885 3.097-2.272 3.097ZM68.3 35.54c2.574 0 4.343-1.247 4.343-3.318 0-2.413-1.91-2.895-3.639-3.257-1.468-.302-2.835-.382-2.835-1.267 0-.744.704-1.146 1.77-1.146 1.166 0 1.87.402 1.99 1.508h2.473c-.2-2.07-1.709-3.418-4.423-3.418-2.353 0-4.202 1.066-4.202 3.298 0 2.252 1.81 2.754 3.659 3.116 1.407.281 2.714.382 2.714 1.367 0 .724-.683 1.186-1.89 1.186-1.226 0-2.07-.522-2.252-1.709h-2.533c.161 2.192 1.83 3.64 4.826 3.64ZM83.025 35.238V24.924h-2.734v5.951c0 1.367-.784 2.332-2.071 2.332-1.166 0-1.71-.663-1.71-1.87v-6.413h-2.713V31.8c0 2.252 1.286 3.72 3.579 3.72 1.447 0 2.251-.543 2.955-1.488h.06v1.206h2.634ZM84.794 35.238h2.734v-5.991c0-1.368.744-2.252 1.85-2.252 1.005 0 1.588.603 1.588 1.769v6.474h2.735v-5.991c0-1.368.704-2.252 1.85-2.252 1.005 0 1.588.603 1.588 1.769v6.474h2.734v-6.936c0-2.252-1.226-3.66-3.398-3.66-1.306 0-2.392.684-3.096 1.81h-.04c-.503-1.086-1.548-1.81-2.855-1.81-1.428 0-2.433.724-2.996 1.67h-.06v-1.388h-2.634v10.314ZM48.176 17.572h2.735V3.196h-2.735v14.376ZM57.597 17.874c3.197 0 5.388-2.373 5.388-5.449 0-3.076-2.191-5.449-5.388-5.449s-5.389 2.373-5.389 5.449c0 3.076 2.192 5.449 5.389 5.449Zm0-2.091c-1.69 0-2.614-1.347-2.614-3.358 0-2.01.925-3.378 2.614-3.378 1.669 0 2.614 1.367 2.614 3.378 0 2.01-.945 3.358-2.614 3.358ZM68.8 21.09c1.528 0 2.855-.361 3.72-1.166.764-.703 1.226-1.688 1.226-3.136v-9.53h-2.634v1.086h-.04c-.623-.865-1.568-1.368-2.855-1.368-2.614 0-4.464 1.97-4.464 5.047 0 3.116 2.252 4.926 4.544 4.926 1.307 0 2.091-.523 2.695-1.207h.06v1.126c0 1.408-.744 2.152-2.292 2.152-1.267 0-1.85-.503-2.071-1.146h-2.714c.281 2.01 2.01 3.217 4.825 3.217Zm-.04-6.333c-1.408 0-2.333-1.025-2.333-2.774 0-1.73.925-2.815 2.313-2.815 1.648 0 2.453 1.287 2.453 2.795 0 1.528-.704 2.794-2.433 2.794ZM80.393 17.874c3.196 0 5.388-2.373 5.388-5.449 0-3.076-2.192-5.449-5.388-5.449-3.197 0-5.389 2.373-5.389 5.449 0 3.076 2.192 5.449 5.389 5.449Zm0-2.091c-1.69 0-2.614-1.347-2.614-3.358 0-2.01.925-3.378 2.614-3.378 1.668 0 2.613 1.367 2.613 3.378 0 2.01-.945 3.358-2.613 3.358ZM88.178 13.631H100V11.28H88.178v2.352ZM100.867 23.172c0-.463.375-.838.838-.838h1.675a.838.838 0 1 1 0 1.675h-1.675a.838.838 0 0 1-.838-.837Z"/><path fill-rule="evenodd" clip-rule="evenodd" d="M20.521 0c11.046 0 20 8.954 20 20s-8.954 20-20 20c-11.045 0-20-8.954-20-20s8.955-20 20-20ZM19.8 1.497c-2.282.32-4.455 2.154-6.141 5.22-.49.89-.93 1.872-1.315 2.933 2.293-.576 4.812-.916 7.456-.968V1.497Zm-9.147 8.634a23.087 23.087 0 0 1 1.74-4.11c.835-1.52 1.827-2.833 2.945-3.841A18.593 18.593 0 0 0 2.701 14.816c1.008-1.118 2.321-2.11 3.841-2.946a23.087 23.087 0 0 1 4.11-1.74Zm-.48 1.69c-.576 2.293-.916 4.812-.969 7.456H2.018c.321-2.282 2.155-4.454 5.22-6.14.89-.49 1.873-.931 2.934-1.316Zm.477 7.456c.06-2.885.476-5.594 1.163-7.987 2.393-.687 5.102-1.102 7.987-1.162v3.123a10.64 10.64 0 0 1-6.027 6.026h-3.123Zm-1.446 1.446H2.018c.321 2.282 2.155 4.454 5.22 6.14.89.49 1.873.931 2.934 1.316-.576-2.293-.916-4.812-.969-7.456Zm2.609 7.987c-.688-2.393-1.103-5.102-1.162-7.987h3.122a10.64 10.64 0 0 1 6.027 6.026v3.123c-2.885-.06-5.594-.475-7.987-1.162Zm-1.16 1.16a23.087 23.087 0 0 1-4.11-1.74c-1.52-.836-2.833-1.828-3.84-2.946A18.593 18.593 0 0 0 15.336 37.82c-1.118-1.008-2.11-2.32-2.946-3.84a23.086 23.086 0 0 1-1.739-4.11Zm9.147 8.633c-2.282-.32-4.455-2.154-6.141-5.22-.49-.89-.93-1.873-1.315-2.933 2.293.576 4.812.916 7.456.968v7.185Zm5.907-.683c1.118-1.008 2.11-2.32 2.946-3.84a23.093 23.093 0 0 0 1.739-4.11 23.09 23.09 0 0 0 4.11-1.74c1.52-.836 2.833-1.828 3.84-2.946A18.593 18.593 0 0 1 25.707 37.82Zm2.994-7.47a20.824 20.824 0 0 1-1.315 2.933c-1.686 3.066-3.859 4.9-6.14 5.22v-7.185c2.643-.052 5.162-.392 7.455-.968Zm2.171-2.171a20.824 20.824 0 0 0 2.933-1.315c3.066-1.687 4.9-3.86 5.22-6.141H31.84c-.053 2.644-.393 5.163-.969 7.456Zm-.477-7.456c-.06 2.885-.475 5.594-1.163 7.987-2.393.687-5.102 1.102-7.987 1.162v-3.12a10.64 10.64 0 0 1 6.028-6.03h3.122Zm1.446-1.446h7.185c-.321-2.282-2.155-4.454-5.22-6.14-.89-.49-1.873-.931-2.934-1.316.576 2.293.916 4.812.969 7.456ZM29.23 11.29c.688 2.393 1.103 5.102 1.163 7.987h-3.122a10.64 10.64 0 0 1-6.028-6.029v-3.12c2.886.06 5.594.475 7.987 1.162Zm1.16-1.16a23.09 23.09 0 0 1 4.11 1.74c1.52.836 2.833 1.828 3.84 2.946A18.593 18.593 0 0 0 25.707 2.18c1.118 1.008 2.11 2.32 2.946 3.84a23.095 23.095 0 0 1 1.739 4.11Zm-9.147-8.633c2.282.32 4.455 2.154 6.141 5.22.49.89.93 1.872 1.315 2.933-2.293-.576-4.812-.916-7.456-.968V1.497Z"/></g><defs><clipPath id="a"><path fill="#fff" d="M0 0h105v40H0z"/></clipPath></defs></svg>
